svg/u1faa5.svg

<svg viewBox="0 0 128 128" xmlns="http://www.w3.org/2000/svg">
  <g>
    <path d="M116.59,13.85L85.34,37.56c-1.37,2.54-0.8,4.99,0.11,6.88c0.51,1.06-0.12,2.33-1.27,2.6 c-5.04,1.19-14.82,2.65-18.98,6.81c0,0-53.81,50.45-56.67,53.09c-2.86,2.64-4.42,6.41-2.86,10.18c0.89,2.16,3.08,4.56,5.91,5.55 c5.72,2,8.74,0.71,14.2-4.75c0,0,55.62-53.7,67.77-65.32c1.1-1.06,2.48-1.75,3.96-2.11c1.48-0.36,3.6-1.22,5.67-3.3l15.27-15.37 C124.88,25.39,120.43,17.7,116.59,13.85z" fill="#E65100"/>
    <path d="M86.53,43.1c4.94,4.94,10.38,1.56,12.27-0.33l17.74-17.74c1.89-1.89,4.36-6.86,0.04-11.18 c-2.8-2.8-7.67-2.69-10.79,0.43L88.06,32.02C86.16,33.91,83.21,39.77,86.53,43.1z" fill="#FB8C00"/>
    <g>
      <g>
        <path d="M105.78,6.14l-3.16,5.24c0,0,7.33,6.41,8.85,7.6c1.13,0.88,2.13,0.81,2.94,0s0.81-2.13,0-2.94 S105.78,6.14,105.78,6.14z" fill="#69B6C9"/>
        <rect height="32.6" fill="#69B6C9" transform="matrix(-0.7071 -0.7071 0.7071 -0.7071 148.7728 112.0087)" width="14.99" x="90.09" y="8.89"/>
        <path d="M84.16,29.84l-5.24,3.16c0,0,8.37,7.45,9.89,8.64c1.13,0.88,2.13,0.81,2.94,0 c0.81-0.81,0.81-2.13,0-2.94C90.94,37.88,84.16,29.84,84.16,29.84z" fill="#69B6C9"/>
      </g>
      <path d="M105.29,8.54l-3.13,5.23c0,0,8.54,7.62,10.07,8.81c1.13,0.88,2.13,0.81,2.94,0 c0.81-0.81,0.81-2.13,0-2.94C114.36,18.83,105.29,8.54,105.29,8.54z" fill="#A5CEDA"/>
      <path d="M102.18,13.04l-4.2,4.2c0,0,8.89,7.98,10.42,9.16c1.13,0.88,2.13,0.81,2.94,0 c0.81-0.81,0.81-2.13,0-2.94S102.18,13.04,102.18,13.04z" fill="#A5CEDA"/>
      <path d="M98.3,16.82l-4.2,4.2c0,0,8.95,8.03,10.47,9.21c1.13,0.88,2.13,0.81,2.94,0 c0.81-0.81,0.81-2.13,0-2.94C106.7,26.48,98.3,16.82,98.3,16.82z" fill="#A5CEDA"/>
      <path d="M93.99,20.17l-4.2,4.2c0,0,9.43,8.51,10.95,9.69c1.13,0.88,2.13,0.81,2.94,0 c0.81-0.81,0.81-2.13,0-2.94S93.99,20.17,93.99,20.17z" fill="#A5CEDA"/>
      <path d="M90.17,24l-4.2,4.2c0,0,9.43,8.51,10.95,9.69c1.13,0.88,2.13,0.81,2.94,0 c0.81-0.81,0.81-2.13,0-2.94C99.05,34.14,90.17,24,90.17,24z" fill="#A5CEDA"/>
      <path d="M87.25,28.73l-5.65,3.01c0,0,9.97,8.78,11.49,9.97c1.13,0.88,2.13,0.81,2.94,0 c0.81-0.81,0.81-2.13,0-2.94C95.22,37.96,87.25,28.73,87.25,28.73z" fill="#A5CEDA"/>
      <path d="M106.82,7.18" fill="#B7B721"/>
      <linearGradient id="SVGID_1_" gradientTransform="matrix(-1 0 0 1 128 0)" gradientUnits="userSpaceOnUse" x1="28.9353" x2="40.1033" y1="26.2592" y2="15.0911">
        <stop offset="0" stop-color="#FAFAFA"/>
        <stop offset="0.7302" stop-color="#EEEEEE"/>
      </linearGradient>
      <path d="M79.33,29.45c0.21-0.92-0.71-2.58,0.07-3.62c0.63-0.84,1.15-0.69,1.77-0.69 c0.94,0,1.74-0.8,1.74-1.74c0-0.61,0.12-1.2,0.5-1.58c0.38-0.38,0.97-0.5,1.58-0.5c0.94,0,1.74-0.8,1.74-1.74 c0-0.61,0.12-1.2,0.5-1.58c0.38-0.38,0.97-0.5,1.58-0.5c0.94,0,1.74-0.8,1.74-1.74c0-0.61,0.12-1.2,0.5-1.58 c0.38-0.38,0.97-0.5,1.58-0.5c0.94,0,1.74-0.8,1.74-1.74c0-0.61,0.12-1.2,0.5-1.58c0.38-0.38,0.97-0.5,1.58-0.5 c0.94,0,1.74-0.8,1.74-1.74c0-0.61,0.13-1.45,0.85-1.9c1.15-0.7,2.38,0.2,3.29,0.2c0.96,0,2.03-1.55,3.25-0.41 c1.16,1.08-0.03,2.55,0.07,3.25c0.09,0.62,0.91,1.97,0.28,3.17c-0.49,0.93-1.58,1.23-2.19,1.24c-0.94,0-1.74,0.8-1.74,1.74 c0,0.61-0.12,1.2-0.5,1.58c-0.38,0.38-0.97,0.5-1.58,0.5c-0.94,0-1.74,0.8-1.74,1.74c0,0.61-0.12,1.2-0.5,1.58 c-0.38,0.38-0.97,0.5-1.58,0.5c-0.94,0-1.74,0.8-1.74,1.74c0,0.61-0.12,1.2-0.5,1.58c-0.38,0.38-0.97,0.5-1.58,0.5 c-0.94,0-1.74,0.8-1.74,1.74c0,0.61-0.12,1.2-0.5,1.58s-0.97,0.5-1.58,0.5c-0.94,0-1.74,0.8-1.74,1.74c0,0.61-0.24,1.49-0.8,1.88 c-1.79,1.25-3.02-0.49-3.88-0.17c-0.59,0.22-2.15,1.6-3.29,0.37C77.5,31.43,79.23,29.92,79.33,29.45z" fill="url(#SVGID_1_)"/>
    </g>
    <path d="M7.11,116.71c4.11,4.11,9.86,0.76,11.92-1.3c1.6-1.6,53.84-53.37,53.84-53.37 c5.11-5.11,6.89-6.5,5.01-9.15c-1.88-2.65-9.38-2.33-13.54,1.84c0,0-52.56,48.89-54.83,51.16S3.66,113.26,7.11,116.71z" fill="#FB8C00"/>
  </g>
</svg>

<svg viewBox="0 0 128 128" xmlns="http://www.w3.org/2000/svg">
  <defs>
    <linearGradient id="SVGID_1_" gradientTransform="matrix(-1 0 0 1 0 0)" gradientUnits="userSpaceOnUse" x1="-99.0647" x2="-87.8967" y1="26.2592" y2="15.0911">
      <stop offset="0" stop-color="#FAFAFA"/>
      <stop offset="0.7302" stop-color="#EEEEEE"/>
    </linearGradient>
  </defs>
  <path d="M116.59,13.85 L85.34,37.56 C83.97,40.1 84.54,42.55 85.45,44.44 C85.96,45.5 85.33,46.77 84.18,47.04 C79.14,48.23 69.36,49.69 65.2,53.85 C65.2,53.85 11.39,104.3 8.53,106.94 C5.67,109.58 4.11,113.35 5.67,117.12 C6.56,119.28 8.75,121.68 11.58,122.67 C17.3,124.67 20.32,123.38 25.78,117.92 C25.78,117.92 81.4,64.22 93.55,52.6 C94.65,51.54 96.03,50.85 97.51,50.49 C98.99,50.13 101.11,49.27 103.18,47.19 L118.45,31.82 C124.88,25.39 120.43,17.7 116.59,13.85 Z" fill="#E65100"/>
  <path d="M86.53,43.1 C91.47,48.04 96.91,44.66 98.8,42.77 L116.54,25.03 C118.43,23.14 120.9,18.17 116.58,13.85 C113.78,11.05 108.91,11.16 105.79,14.28 L88.06,32.02 C86.16,33.91 83.21,39.77 86.53,43.1 Z" fill="#FB8C00"/>
  <path d="M105.78,6.14 L102.62,11.38 C102.62,11.38 109.95,17.79 111.47,18.98 C112.6,19.86 113.6,19.79 114.41,18.98 C115.22,18.17 115.22,16.85 114.41,16.04 C113.6,15.23 105.78,6.14 105.78,6.14 Z" fill="#69B6C9"/>
  <path d="M91.356,42.02 L80.757,31.421 L103.808,8.369 L114.408,18.968 L91.356,42.02 Z" fill="#69B6C9"/>
  <path d="M84.16,29.84 L78.92,33 C78.92,33 87.29,40.45 88.81,41.64 C89.94,42.52 90.94,42.45 91.75,41.64 C92.56,40.83 92.56,39.51 91.75,38.7 C90.94,37.88 84.16,29.84 84.16,29.84 Z" fill="#69B6C9"/>
  <path d="M105.29,8.54 L102.16,13.77 C102.16,13.77 110.7,21.39 112.23,22.58 C113.36,23.46 114.36,23.39 115.17,22.58 C115.98,21.77 115.98,20.45 115.17,19.64 C114.36,18.83 105.29,8.54 105.29,8.54 Z" fill="#A5CEDA"/>
  <path d="M102.18,13.04 L97.98,17.24 C97.98,17.24 106.87,25.22 108.4,26.4 C109.53,27.28 110.53,27.21 111.34,26.4 C112.15,25.59 112.15,24.27 111.34,23.46 C110.53,22.65 102.18,13.04 102.18,13.04 Z" fill="#A5CEDA"/>
  <path d="M98.3,16.82 L94.1,21.02 C94.1,21.02 103.05,29.05 104.57,30.23 C105.7,31.11 106.7,31.04 107.51,30.23 C108.32,29.42 108.32,28.1 107.51,27.29 C106.7,26.48 98.3,16.82 98.3,16.82 Z" fill="#A5CEDA"/>
  <path d="M93.99,20.17 L89.79,24.37 C89.79,24.37 99.22,32.88 100.74,34.06 C101.87,34.94 102.87,34.87 103.68,34.06 C104.49,33.25 104.49,31.93 103.68,31.12 C102.87,30.31 93.99,20.17 93.99,20.17 Z" fill="#A5CEDA"/>
  <path d="M90.17,24 L85.97,28.2 C85.97,28.2 95.4,36.71 96.92,37.89 C98.05,38.77 99.05,38.7 99.86,37.89 C100.67,37.08 100.67,35.76 99.86,34.95 C99.05,34.14 90.17,24 90.17,24 Z" fill="#A5CEDA"/>
  <path d="M87.25,28.73 L81.6,31.74 C81.6,31.74 91.57,40.52 93.09,41.71 C94.22,42.59 95.22,42.52 96.03,41.71 C96.84,40.9 96.84,39.58 96.03,38.77 C95.22,37.96 87.25,28.73 87.25,28.73 Z" fill="#A5CEDA"/>
  <path d="M79.33,29.45 C79.54,28.53 78.62,26.87 79.4,25.83 C80.03,24.99 80.55,25.14 81.17,25.14 C82.11,25.14 82.91,24.34 82.91,23.4 C82.91,22.79 83.03,22.2 83.41,21.82 C83.79,21.44 84.38,21.32 84.99,21.32 C85.93,21.32 86.73,20.52 86.73,19.58 C86.73,18.97 86.85,18.38 87.23,18 C87.61,17.62 88.2,17.5 88.81,17.5 C89.75,17.5 90.55,16.7 90.55,15.76 C90.55,15.15 90.67,14.56 91.05,14.18 C91.43,13.8 92.02,13.68 92.63,13.68 C93.57,13.68 94.37,12.88 94.37,11.94 C94.37,11.33 94.49,10.74 94.87,10.36 C95.25,9.98 95.84,9.86 96.45,9.86 C97.39,9.86 98.19,9.06 98.19,8.12 C98.19,7.51 98.32,6.67 99.04,6.22 C100.19,5.52 101.42,6.42 102.33,6.42 C103.29,6.42 104.36,4.87 105.58,6.01 C106.74,7.09 105.55,8.56 105.65,9.26 C105.74,9.88 106.56,11.23 105.93,12.43 C105.44,13.36 104.35,13.66 103.74,13.67 C102.8,13.67 102,14.47 102,15.41 C102,16.02 101.88,16.61 101.5,16.99 C101.12,17.37 100.53,17.49 99.92,17.49 C98.98,17.49 98.18,18.29 98.18,19.23 C98.18,19.84 98.06,20.43 97.68,20.81 C97.3,21.19 96.71,21.31 96.1,21.31 C95.16,21.31 94.36,22.11 94.36,23.05 C94.36,23.66 94.24,24.25 93.86,24.63 C93.48,25.01 92.89,25.13 92.28,25.13 C91.34,25.13 90.54,25.93 90.54,26.87 C90.54,27.48 90.42,28.07 90.04,28.45 C89.66,28.83 89.07,28.95 88.46,28.95 C87.52,28.95 86.72,29.75 86.72,30.69 C86.72,31.3 86.48,32.18 85.92,32.57 C84.13,33.82 82.9,32.08 82.04,32.4 C81.45,32.62 79.89,34 78.75,32.77 C77.5,31.43 79.23,29.92 79.33,29.45 Z" fill="url(#SVGID_1_)"/>
  <path d="M7.11,116.71 C11.22,120.82 16.97,117.47 19.03,115.41 C20.63,113.81 72.87,62.04 72.87,62.04 C77.98,56.93 79.76,55.54 77.88,52.89 C76,50.24 68.5,50.56 64.34,54.73 C64.34,54.73 11.78,103.62 9.51,105.89 C7.24,108.16 3.66,113.26 7.11,116.71 Z" fill="#FB8C00"/>
</svg>
